X:1768
T:The Seamen's Club
M:C|
L:1/8
B:O'Neill's 1768
R:Hornpipe
Z:"Transcribed by Bob Safranek, rjs@gsp.org"
K:G
    D2 | D>GG>B A>GE>G | D>GG>B e2 d>B | d2 g>f e>dc>B | c>Bc>e d>BA>G |
         D>GG>B A>GE>G | D>GG>B e2 d>B | d2 g>f e>dc>B | d>cA>B G2    :|
|: g>a | b>gf>g e>gd>B | c>BA>G F>GA>B | B>GB>d e>ce>g | a>gf>e d2 B>A |
         .G(gfg) .e(gfg) | .d(gfg) .b(gfg) | d>gf>e d>cB>A | G2 G2 G2 :|


